svg/file-icons/Test-Haskell.svg

<svg version="1.1" xmlns="http://www.w3.org/2000/svg" width="512px" height="512px"><path d="M184.7847137,476.5094299l76.9922943-115.4871216l-76.9922943-115.4871216h57.7435608l76.9922943,115.4871216l-76.9922943,115.4871216H184.7847137z M261.7770081,476.5094299l76.9923096-115.4871216l-76.9923096-115.4871216h57.7435608L473.502533,476.5094299h-57.7435608l-48.1178894-72.1781006l-48.1205139,72.1781006H261.7770081z M447.8401794,409.1428528l-25.662323-38.4948425L512,370.6453552v38.4974976H447.8401794z M409.3453674,351.3992615l-25.664978-38.494812L512,312.9017944v38.497467H409.3453674z M221.0874023,387.0168762l17.8462524-26.9945679l-72.9803467-108.5473785l-81.262085,135.5419464H221.0874023z M301.7651367,35.4905548H111.835083c-19.5045166,0-19.5045166,27.5949097-0.0004883,27.5949097h26.0749512v125.7775269L5.7651367,408.0075989c-12.4072876,21.1151123-4.6187134,34.3093262,21.729248,34.3093262h157.0338135l18.2431641-27.5949097H33.9144897l131.9580688-218.8084869V63.0854645h81.8540649v132.828064l19.852356,30.3677979h31.9750977l-23.8644409-37.418335V63.0854645h26.0755005C321.2696533,63.0854645,321.2696533,35.4905548,301.7651367,35.4905548z"/></svg>

<svg xmlns="http://www.w3.org/2000/svg" width="512" height="512"><path d="m184.785 476.51 76.992-115.488-76.992-115.487h57.743l76.993 115.487-76.993 115.487h-57.743zm76.992 0 76.992-115.488-76.992-115.487h57.744L473.503 476.51h-57.744l-48.118-72.178-48.12 72.178h-57.744zm186.063-67.367-25.662-38.495 89.822-.003v38.498h-64.16zm-38.495-57.744-25.665-38.495 128.32-.002v38.497H409.345zm-188.258 35.618 17.847-26.995-72.98-108.547L84.69 387.017h136.396zM301.765 35.49h-189.93c-19.504 0-19.504 27.594 0 27.594h26.075v125.778L5.765 408.008c-12.407 21.115-4.619 34.309 21.73 34.309h157.033l18.243-27.595H33.914l131.959-218.808V63.085h81.854v132.829l19.852 30.367h31.975l-23.864-37.418V63.085h26.075c19.505 0 19.505-27.594 0-27.594z"/></svg>
